X: 41498
T: Ugi's Na Mo Thriall Dhachaidh
R: strathspey
M: 4/4
K: Aminor
AAcA A2 A2|c2 AG E2 G2|e2e2 dc A2|A2 cG E4|
edec A2 c2|edgc A2 c2|g2 eg a2 A2|cA c2 AG A2|
e2 e2 A2 A2|c2 ag e2 ga|A2 cG E4:|

